Arsenal/img/howWeWorkIcon1.svg

<svg width="40" height="40" viewBox="0 0 40 40" fill="none" xmlns="http://www.w3.org/2000/svg">
<path d="M39.5672 28.7041V11L28 19.852L39.5672 28.7041Z" fill="#DE6518"/>
<path d="M0 11.147V28.853L11.567 19.9999L0 11.147Z" fill="#DE6518"/>
<path d="M1.09383 9.03293C1.09383 9.03293 18.1605 22.0952 18.3113 22.2106C18.8 22.5836 19.3841 22.7813 19.9995 22.7813C20.615 22.7813 21.1984 22.5839 21.6868 22.2104C21.6868 22.2104 38.749 9.15364 38.9064 9.03309C39.2723 8.75286 39.555 8.39622 39.7416 7.99426H0.257812C0.444531 8.39622 0.727578 8.75278 1.09383 9.03293Z" fill="#DE6518"/>
<path d="M38.9062 30.9666L26.5041 21.4755C26.5041 21.4755 23.1712 24.0259 23.1091 24.0699C22.2101 24.761 21.1343 25.1251 19.9997 25.1251C18.8659 25.1251 17.79 24.7612 16.8881 24.0727L13.4948 21.4756C7.30719 26.2111 1.09391 30.967 1.09391 30.967C0.727656 31.2472 0.444609 31.6038 0.257812 32.0057H39.7416C39.5551 31.6037 39.2722 31.2469 38.9062 30.9666Z" fill="#DE6518"/>
</svg>

<svg width="40" height="40" fill="none" xmlns="http://www.w3.org/2000/svg"><path d="M39.567 28.704V11L28 19.852l11.567 8.852zM0 11.147v17.706L11.567 20 0 11.147zm1.094-2.114L18.31 22.21c.489.373 1.073.57 1.689.57.615 0 1.198-.197 1.687-.57l17.22-13.178c.365-.28.648-.637.835-1.039H.258c.187.402.47.759.836 1.039z" fill="#DE6518"/><path d="M38.906 30.967l-12.402-9.491s-3.333 2.55-3.395 2.594A5.06 5.06 0 0120 25.125a5.087 5.087 0 01-3.11-1.052l-3.394-2.597-12.401 9.491c-.366.28-.65.637-.836 1.039h39.484a2.782 2.782 0 00-.836-1.04z" fill="#DE6518"/></svg>
